images/social/social-tw.svg

<svg width="20" height="20" viewBox="0 0 20 20" fill="none" xmlns="http://www.w3.org/2000/svg">
<path d="M12.6 2.1942C14.4 1.6942 15.8 2.4942 16.4 3.3942C17.1 3.1942 17.8 2.8942 18.5 2.6942C18.5 3.5942 17.9 4.1942 17.6 4.4942C18.3 4.5942 19 3.8942 19 3.8942C18.8 4.8942 17.9 5.6942 17.3 5.8942C17.1 12.6942 14 17.0942 6.7 16.9942C6.1 16.9942 6.8 16.9942 6.2 16.9942C5.8 16.9942 1.8 16.4942 1 15.0942C3.4 15.2942 5.1 14.6942 6 13.8942C5 13.5942 3.1 13.4942 2.8 10.9942C3.2 11.0942 3.4 11.1942 4.1 11.0942C2.8 10.2942 1.4 9.4942 1.5 7.2942C1.8 7.5942 2.6 7.7942 2.9 7.7942C2.1 7.5942 0.8 4.4942 1.9 2.8942C3.8 4.7942 5.9 6.4942 9.5 6.6942C9.7 4.2942 10.7 2.7942 12.6 2.1942Z" fill="#83B3D3"/>
</svg>

<svg width="20" height="20" fill="none" xmlns="http://www.w3.org/2000/svg"><path d="M12.6 2.194c1.8-.5 3.2.3 3.8 1.2.7-.2 1.4-.5 2.1-.7 0 .9-.6 1.5-.9 1.8.7.1 1.4-.6 1.4-.6-.2 1-1.1 1.8-1.7 2-.2 6.8-3.3 11.2-10.6 11.1h-.5c-.4 0-4.4-.5-5.2-1.9 2.4.2 4.1-.4 5-1.2-1-.3-2.9-.4-3.2-2.9.4.1.6.2 1.3.1-1.3-.8-2.7-1.6-2.6-3.8.3.3 1.1.5 1.4.5-.8-.2-2.1-3.3-1-4.9 1.9 1.9 4 3.6 7.6 3.8.2-2.4 1.2-3.9 3.1-4.5Z" fill="#83B3D3"/></svg>
